assets/img/icons/duotone-icons/Weather/Night-fog.svg

<?xml version="1.0" encoding="UTF-8"?>
<svg width="24px" height="24px" viewBox="0 0 24 24" version="1.1" xmlns="http://www.w3.org/2000/svg" xmlns:xlink="http://www.w3.org/1999/xlink">
    <!-- Generator: Sketch 52.2 (67145) - http://www.bohemiancoding.com/sketch -->
    <title>Stockholm-icons / Weather / Night-fog</title>
    <desc>Created with Sketch.</desc>
    <g id="Stockholm-icons-/-Weather-/-Night-fog" stroke="none" stroke-width="1" fill="none" fill-rule="evenodd">
        <polygon id="Shape" points="0 0 24 0 24 24 0 24"></polygon>
        <path d="M12.880982,3.00020666 C12.4130881,3.80913672 12.1452994,4.74829566 12.1452994,5.75 C12.1452994,8.77148908 14.5817362,11.2239178 17.5971169,11.2497933 C16.6461704,12.8938611 14.8686612,14 12.8327994,14 C9.7952333,14 7.33279942,11.5375661 7.33279942,8.5 C7.33279942,5.46243388 9.7952333,3 12.8327994,3 C12.8488765,3 12.8649374,3.00006898 12.880982,3.00020666 Z" id="Combined-Shape" fill="#335EEA"></path>
        <path d="M2.5,16 L21.5,16 C21.7761424,16 22,16.2238576 22,16.5 C22,16.7761424 21.7761424,17 21.5,17 L2.5,17 C2.22385763,17 2,16.7761424 2,16.5 C2,16.2238576 2.22385763,16 2.5,16 Z M2.5,18 L7.5,18 C7.77614237,18 8,18.2238576 8,18.5 C8,18.7761424 7.77614237,19 7.5,19 L2.5,19 C2.22385763,19 2,18.7761424 2,18.5 C2,18.2238576 2.22385763,18 2.5,18 Z M14.5,20 L21.5,20 C21.7761424,20 22,20.2238576 22,20.5 C22,20.7761424 21.7761424,21 21.5,21 L14.5,21 C14.2238576,21 14,20.7761424 14,20.5 C14,20.2238576 14.2238576,20 14.5,20 Z M9.5,18 L21.5,18 C21.7761424,18 22,18.2238576 22,18.5 C22,18.7761424 21.7761424,19 21.5,19 L9.5,19 C9.22385763,19 9,18.7761424 9,18.5 C9,18.2238576 9.22385763,18 9.5,18 Z M2.5,20 L12.5,20 C12.7761424,20 13,20.2238576 13,20.5 C13,20.7761424 12.7761424,21 12.5,21 L2.5,21 C2.22385763,21 2,20.7761424 2,20.5 C2,20.2238576 2.22385763,20 2.5,20 Z" id="Combined-Shape" fill="#335EEA" opacity="0.3"></path>
    </g>
</svg>

<svg width="24" height="24" viewBox="0 0 24 24" xmlns="http://www.w3.org/2000/svg"><g fill="none" fill-rule="evenodd"><path d="M0 0h24v24H0z"/><path d="M12.881 3a5.5 5.5 0 004.716 8.25A5.5 5.5 0 1112.881 3z" fill="#335EEA"/><path d="M2.5 16h19a.5.5 0 110 1h-19a.5.5 0 110-1zm0 2h5a.5.5 0 110 1h-5a.5.5 0 110-1zm12 2h7a.5.5 0 110 1h-7a.5.5 0 110-1zm-5-2h12a.5.5 0 110 1h-12a.5.5 0 110-1zm-7 2h10a.5.5 0 110 1h-10a.5.5 0 110-1z" fill="#335EEA" opacity=".3"/></g></svg>
